X: 48
T: Black eyed Susie
B: canberra pickers and fiddlers
B: old time tunes update
B: tunes
M:C|
L:1/8
R: Reel
Q: 1/4=100
K:D
V:1 
(fg|a2)fg a2f2|g2 ea g2eg|fedf ecec|d2A2F2Ac||
d2d2 fdec|d2d2 B2c2|d2 eg fdec|dBAG F2Ac|
d2d2 fdec|d2d2 B2c2|d2d2 fdec|dBAG F2A2||
a3a a2f2|g2b2g2 eg|f2d2 ecec|d2A2F2A2|
a3a a2f2|gfga gfeg|fedf ecec|dBAG F2A2||
W: I got drunk, I got boozy,
W: I went home with Black-Eyed Susie.
W: 
W: Black-Eyed Susie’s long and lean,
W: Prettiest girl I ever seen.
W: 
W: Chorus:
W: Hey! Black-Eyed Susie,
W: Ho! Black-Eyed Susie,
W: Hey! Black-Eyed Susie
W: Ho!
W: 
W: Black-Eyed Susie went to town,
W: All she wore was a gingham gown.
W: 
W: Black-Eyed Susie’s long and tall,
W: Sleeps in the kitchen with her feet in the hall. (Chorus)
W: 
W: Hey old man I want your daughter,
W: To chop my wood and carry my water.
W: 
W: Black-Eyed Susie lives in a holler,
W: She won’t come and I won’t call her. (Chorus)
W: 
W: All I want in this creation,
W: Pretty little wife and a big plantation.
W: 
W: All I need to make me happy,
W: Two little boys to call me Pappy. (Chorus)
W: 
W: Black-Eyed Susie went huckleberry pickin’,
W: Came home late and took a lickin’.
W: 
W: Love my wife and love my baby,
W: Love my biscuits sopped in gravy. (Chorus)
% abcbook-tune_id 67a7d9ec4cf88ad25a6ab2e5
% abcbook-tune_composer_id 
% abcbook-link-0 https://www.youtube.com/watch?v=taUXkYtu40c
% abcbook-link-title-0 Black Eyed Suzie
% abcbook-link-start-at-0 27
% abcbook-boost 0
% abcbook-difficulty 0
% abcbook-tags old time tunes
% abcbook-tablature 
% abcbook-transpose -5
% abcbook-tuning AEAE
% abcbook-lastupdated 1739100379241
% abcbook-src-url 
% abcbook-soundfonts 
% abcbook-repeats 1
%%MIDI transpose -5


